img/logo_footer.svg

<svg xmlns="http://www.w3.org/2000/svg" width="383.83" height="129.09" viewBox="0 0 383.83 129.09"><style>.st0{fill:#fff}</style><path class="st0" d="M203.17 28.74V4.69h3.63v24.05h2.44v8.88h-3.47v-5.49h-17.76V4.69h3.65v24.05zm22.64-.04v3.47h-14.1V4.73h14.1V8h-10.44v8.77h10.44v3.2h-10.44v8.73zm8.24-8.65v12.12h-3.62V4.73h3.62v11.85h11.73V4.73h3.62v27.44h-3.62V20.05zm27.4-11.97v24.09h-3.62V8.08h-5.53V4.73h14.71v3.35zm12-.08v9.68h3.13c4.11 0 6.17-1.58 6.17-4.76 0-3.28-2-4.92-6.02-4.92zm0 12.96v11.21h-3.58V4.73h7.4c2.69 0 4.85.63 6.47 1.9 1.76 1.4 2.63 3.42 2.63 6.06 0 2.69-.92 4.78-2.78 6.25-1.7 1.35-3.94 2.02-6.71 2.02zm-65.13 50.39h4.57c-2.31 4.72-6.36 7.08-12.15 7.08-3.94 0-7.25-1.41-9.93-4.23-2.68-2.82-4.02-6.21-4.02-10.17 0-3.84 1.38-7.15 4.13-9.93 2.76-2.78 6.06-4.17 9.89-4.17 2.72 0 5.12.61 7.21 1.83 2.18 1.27 3.81 3.11 4.87 5.52h-4.34c-1.86-2.49-4.46-3.73-7.81-3.73-2.75 0-5.12 1.05-7.13 3.16-2.01 2.11-3.01 4.55-3.01 7.32 0 2.87.96 5.37 2.9 7.51 1.98 2.21 4.39 3.31 7.24 3.31 3.35 0 5.88-1.17 7.58-3.5M220.17 54v23.9h-3.62V50.46h18.75V77.9h-3.62V54zm37.16 2.56L243.5 77.9h-3.36V50.46h3.66v21.29l13.81-21.29h3.38V77.9h-3.66zm28.81 14.79h4.58c-2.31 4.72-6.37 7.08-12.16 7.08-3.94 0-7.25-1.41-9.93-4.23-2.68-2.82-4.02-6.21-4.02-10.17 0-3.84 1.38-7.15 4.14-9.93 2.75-2.78 6.05-4.17 9.89-4.17 2.72 0 5.12.61 7.2 1.83 2.18 1.27 3.81 3.11 4.88 5.52h-4.35c-1.85-2.49-4.46-3.73-7.81-3.73-2.74 0-5.12 1.05-7.13 3.16-2 2.11-3.01 4.55-3.01 7.32 0 2.87.97 5.37 2.9 7.51 1.98 2.21 4.39 3.31 7.24 3.31 3.35 0 5.88-1.17 7.58-3.5m17.12-16.37l-4.4 11.45h8.72zm8.6 22.92l-3.02-8.04h-11.2l-3.03 8.04h-3.93l10.75-27.44h3.62L315.8 77.9zm9.16-12.12V77.9h-3.62V50.46h3.62v11.85h11.74V50.46h3.62V77.9h-3.62V65.78zm37.39-9.22L344.57 77.9h-3.35V50.46h3.66v21.29l13.8-21.29h3.38V77.9h-3.65zm21.64 8.08v.11h-.07zm.15-10.83h-3.23c-2.24 0-3.92.33-5.04 1-1.44.86-2.17 2.32-2.17 4.38 0 3.81 2.44 5.72 7.32 5.72h2.59l-8.99 12.99h-4.5l7.74-10.71c-2.24 0-4.09-.76-5.57-2.28-1.47-1.53-2.21-3.41-2.21-5.65 0-2.89.94-5.12 2.82-6.67 1.73-1.42 4.08-2.13 7.05-2.13h7.82V77.9h-3.63zm-175.77 66.4l-6.57-19.47-6.57 19.47zm-8.42-24.05h3.66l8.27 24.05H210v8.88h-3.55v-5.49h-17.19v5.49h-3.54v-8.88h2.02zm38.72 13.53c0-2.77-1.01-5.2-3.03-7.28-2.02-2.08-4.41-3.13-7.18-3.13-2.77 0-5.17 1.06-7.2 3.17-2.04 2.11-3.05 4.55-3.05 7.31 0 2.88.99 5.4 2.97 7.57 1.98 2.17 4.41 3.26 7.28 3.26 3 0 5.46-1.08 7.39-3.24 1.88-2.09 2.82-4.64 2.82-7.66m3.85.07c0 3.99-1.35 7.4-4.04 10.22-2.69 2.82-6.03 4.23-10.02 4.23-3.94 0-7.27-1.42-10.01-4.27-2.73-2.85-4.09-6.24-4.09-10.18 0-3.86 1.39-7.17 4.19-9.94 2.79-2.77 6.12-4.16 9.98-4.16 3.89 0 7.2 1.38 9.91 4.14 2.72 2.75 4.08 6.08 4.08 9.96m11.61-9.05l-7.87 22.93h-3.93l9.95-27.44h3.62l9.95 27.44h-3.85zm17.09-1.12v24.05h-3.66V96.2h14.1v3.39zm33.62 10.1c0-2.77-1.01-5.2-3.03-7.28-2.02-2.08-4.42-3.13-7.19-3.13-2.77 0-5.17 1.06-7.2 3.17-2.03 2.11-3.05 4.55-3.05 7.31 0 2.88.99 5.4 2.97 7.57 1.98 2.17 4.41 3.26 7.28 3.26 3 0 5.46-1.08 7.4-3.24 1.88-2.09 2.82-4.64 2.82-7.66m3.85.07c0 3.99-1.35 7.4-4.04 10.22-2.7 2.82-6.04 4.23-10.03 4.23-3.94 0-7.27-1.42-10-4.27-2.73-2.85-4.1-6.24-4.1-10.18 0-3.86 1.4-7.17 4.19-9.94 2.8-2.77 6.13-4.16 9.99-4.16 3.89 0 7.19 1.38 9.91 4.14 2.72 2.75 4.08 6.08 4.08 9.96m7.16 1.03v9.46h3.35c3.76 0 5.64-1.49 5.64-4.46 0-3.33-1.88-5-5.64-5zm0-11.2v8.31h1.52c3.94 0 5.91-1.44 5.91-4.31 0-2.67-1.68-4-5.03-4zm-3.58 24.05V96.2h5.79c5.92 0 8.88 2.49 8.88 7.47 0 2.26-1.09 4.01-3.28 5.26 3.25.96 4.88 3.1 4.88 6.4 0 5.54-3.34 8.31-10.02 8.31zM27.12 81.44V38.43h6.48v43.01h4.36v8.64h-6.2V87.5H0V38.43h6.54v43.01zm36.37 1.26c-10.25 0-18.6-8.35-18.6-18.6 0-10.25 8.35-18.59 18.6-18.59 4.95 0 9.44 1.96 12.77 5.13l4.91-4.93c-4.58-4.41-10.81-7.14-17.68-7.14-14.1 0-25.53 11.43-25.53 25.53 0 14.1 11.43 25.53 25.53 25.53 6.89 0 13.13-2.74 17.72-7.17l-4.91-4.93c-3.34 3.19-7.84 5.17-12.81 5.17"/><path class="st0" d="M62.91 64.1l-.04-.03-.03.03zm-.04-.03l.04-.04h-.07zm57.53 17.37l-11.75-34.81-11.76 34.81zm-15.06-43.01h6.54l14.79 43.01h3.68v8.64h-6.34V87.5H93.28v2.58h-6.34v-8.64h3.61z"/><path d="M19.77 26.5A57.627 57.627 0 0163.49 6.44c14.31 0 27.99 5.3 38.51 14.74H63.49l-6.42 6.44h59.6l-4.58-5.32A64.04 64.04 0 0063.49 0C44.8 0 27.09 8.12 14.88 22.3l-4.58 5.28h8.52z" fill="#8dc124"/><path d="M107.21 101.7c-10.98 12.75-26.91 20.07-43.72 20.07a57.59 57.59 0 01-38.51-14.75h38.51l6.42-6.44H10.3l4.58 5.32c12.21 14.18 29.92 22.31 48.61 22.31 18.69 0 36.4-8.13 48.6-22.31l4.58-5.28h-8.51z" fill="#008937"/></svg>

<svg xmlns="http://www.w3.org/2000/svg" width="383.83" height="129.09" viewBox="0 0 383.83 129.09"><style type="text/css">.st2{fill:#008937;}
		.st1{fill:#8dc124;}
		.st0{fill:#ffffff;}</style><path class="st0" d="M203.17,28.74L203.17,4.69L206.8,4.69L206.8,28.74L209.24,28.74L209.24,37.62L205.77,37.62L205.77,32.13L188.01,32.13L188.01,4.69L191.66,4.69L191.66,28.74Z"/><path class="st0" d="M225.81,28.7L225.81,32.17L211.71,32.17L211.71,4.73L225.81,4.73L225.81,8L215.37,8L215.37,16.77L225.81,16.77L225.81,19.97L215.37,19.97L215.37,28.7Z"/><path class="st0" d="M234.05,20.05L234.05,32.17L230.43,32.17L230.43,4.73L234.05,4.73L234.05,16.58L245.78,16.58L245.78,4.73L249.4,4.73L249.4,32.17L245.78,32.17L245.78,20.05Z"/><path class="st0" d="M261.45,8.08L261.45,32.17L257.83,32.17L257.83,8.08L252.3,8.08L252.3,4.73L267.01,4.73L267.01,8.08Z"/><path class="st0" d="M273.45,8L273.45,17.68L276.58,17.68C280.69,17.68 282.75,16.1 282.75,12.92C282.75,9.64 280.75,8 276.73,8ZM273.45,20.96L273.45,32.17L269.87,32.17L269.87,4.73L277.27,4.73C279.96,4.73 282.12,5.36 283.74,6.63C285.5,8.03 286.37,10.05 286.37,12.69C286.37,15.38 285.45,17.47 283.59,18.94C281.89,20.29 279.65,20.96 276.88,20.96Z"/><path class="st0" d="M208.32,71.35L212.89,71.35C210.58,76.07 206.53,78.43 200.74,78.43C196.8,78.43 193.49,77.02 190.81,74.2C188.13,71.38 186.79,67.99 186.79,64.03C186.79,60.19 188.17,56.88 190.92,54.1C193.68,51.32 196.98,49.93 200.81,49.93C203.53,49.93 205.93,50.54 208.02,51.76C210.2,53.03 211.83,54.87 212.89,57.28L208.55,57.28C206.69,54.79 204.09,53.55 200.74,53.55C197.99,53.55 195.62,54.6 193.61,56.71C191.6,58.82 190.6,61.26 190.6,64.03C190.6,66.9 191.56,69.4 193.5,71.54C195.48,73.75 197.89,74.85 200.74,74.85C204.09,74.85 206.62,73.68 208.32,71.35"/><path class="st0" d="M220.17,54L220.17,77.9L216.55,77.9L216.55,50.46L235.3,50.46L235.3,77.9L231.68,77.9L231.68,54Z"/><path class="st0" d="M257.33,56.56L243.5,77.9L240.14,77.9L240.14,50.46L243.8,50.46L243.8,71.75L257.61,50.46L260.99,50.46L260.99,77.9L257.33,77.9Z"/><path class="st0" d="M286.14,71.35L290.72,71.35C288.41,76.07 284.35,78.43 278.56,78.43C274.62,78.43 271.31,77.02 268.63,74.2C265.95,71.38 264.61,67.99 264.61,64.03C264.61,60.19 265.99,56.88 268.75,54.1C271.5,51.32 274.8,49.93 278.64,49.93C281.36,49.93 283.76,50.54 285.84,51.76C288.02,53.03 289.65,54.87 290.72,57.28L286.37,57.28C284.52,54.79 281.91,53.55 278.56,53.55C275.82,53.55 273.44,54.6 271.43,56.71C269.43,58.82 268.42,61.26 268.42,64.03C268.42,66.9 269.39,69.4 271.32,71.54C273.3,73.75 275.71,74.85 278.56,74.85C281.91,74.85 284.44,73.68 286.14,71.35"/><path class="st0" d="M303.26,54.98L298.86,66.43L307.58,66.43ZM311.86,77.9L308.84,69.86L297.64,69.86L294.61,77.9L290.68,77.9L301.43,50.46L305.05,50.46L315.8,77.9Z"/><path class="st0" d="M321.02,65.78L321.02,77.9L317.4,77.9L317.4,50.46L321.02,50.46L321.02,62.31L332.76,62.31L332.76,50.46L336.38,50.46L336.38,77.9L332.76,77.9L332.76,65.78Z"/><path class="st0" d="M358.41,56.56L344.57,77.9L341.22,77.9L341.22,50.46L344.88,50.46L344.88,71.75L358.68,50.46L362.06,50.46L362.06,77.9L358.41,77.9Z"/><path class="st0" d="M380.05,64.64L380.05,64.75L379.98,64.75ZM380.2,53.81L376.97,53.81C374.73,53.81 373.05,54.14 371.93,54.81C370.49,55.67 369.76,57.13 369.76,59.19C369.76,63 372.2,64.91 377.08,64.91L379.67,64.91L370.68,77.9L366.18,77.9L373.92,67.19C371.68,67.19 369.83,66.43 368.35,64.91C366.88,63.38 366.14,61.5 366.14,59.26C366.14,56.37 367.08,54.14 368.96,52.59C370.69,51.17 373.04,50.46 376.01,50.46L383.83,50.46L383.83,77.9L380.2,77.9Z"/><path class="st0" d="M204.43,120.21L197.86,100.74L191.29,120.21ZM196.01,96.16L199.67,96.16L207.94,120.21L210,120.21L210,129.09L206.45,129.09L206.45,123.6L189.26,123.6L189.26,129.09L185.72,129.09L185.72,120.21L187.74,120.21Z"/><path class="st0" d="M234.73,109.69C234.73,106.92 233.72,104.49 231.7,102.41C229.68,100.33 227.29,99.28 224.52,99.28C221.75,99.28 219.35,100.34 217.32,102.45C215.28,104.56 214.27,107 214.27,109.76C214.27,112.64 215.26,115.16 217.24,117.33C219.22,119.5 221.65,120.59 224.52,120.59C227.52,120.59 229.98,119.51 231.91,117.35C233.79,115.26 234.73,112.71 234.73,109.69M238.58,109.76C238.58,113.75 237.23,117.16 234.54,119.98C231.85,122.8 228.51,124.21 224.52,124.21C220.58,124.21 217.25,122.79 214.51,119.94C211.78,117.09 210.42,113.7 210.42,109.76C210.42,105.9 211.81,102.59 214.61,99.82C217.4,97.05 220.73,95.66 224.59,95.66C228.48,95.66 231.79,97.04 234.5,99.8C237.22,102.55 238.58,105.88 238.58,109.76"/><path class="st0" d="M250.19,100.71L242.32,123.64L238.39,123.64L248.34,96.2L251.96,96.2L261.91,123.64L258.06,123.64Z"/><path class="st0" d="M267.28,99.59L267.28,123.64L263.62,123.64L263.62,96.2L277.72,96.2L277.72,99.59Z"/><path class="st0" d="M300.9,109.69C300.9,106.92 299.89,104.49 297.87,102.41C295.85,100.33 293.45,99.28 290.68,99.28C287.91,99.28 285.51,100.34 283.48,102.45C281.45,104.56 280.43,107 280.43,109.76C280.43,112.64 281.42,115.16 283.4,117.33C285.38,119.5 287.81,120.59 290.68,120.59C293.68,120.59 296.14,119.51 298.08,117.35C299.96,115.26 300.9,112.71 300.9,109.69M304.75,109.76C304.75,113.75 303.4,117.16 300.71,119.98C298.01,122.8 294.67,124.21 290.68,124.21C286.74,124.21 283.41,122.79 280.68,119.94C277.95,117.09 276.58,113.7 276.58,109.76C276.58,105.9 277.98,102.59 280.77,99.82C283.57,97.05 286.9,95.66 290.76,95.66C294.65,95.66 297.95,97.04 300.67,99.8C303.39,102.55 304.75,105.88 304.75,109.76"/><path class="st0" d="M311.91,110.79L311.91,120.25L315.26,120.25C319.02,120.25 320.9,118.76 320.9,115.79C320.9,112.46 319.02,110.79 315.26,110.79ZM311.91,99.59L311.91,107.9L313.43,107.9C317.37,107.9 319.34,106.46 319.34,103.59C319.34,100.92 317.66,99.59 314.31,99.59ZM308.33,123.64L308.33,96.2L314.12,96.2C320.04,96.2 323,98.69 323,103.67C323,105.93 321.91,107.68 319.72,108.93C322.97,109.89 324.6,112.03 324.6,115.33C324.6,120.87 321.26,123.64 314.58,123.64Z"/><path class="st0" d="M27.12,81.44L27.12,38.43L33.6,38.43L33.6,81.44L37.96,81.44L37.96,90.08L31.76,90.08L31.76,87.5L0,87.5L0,38.43L6.54,38.43L6.54,81.44Z"/><path class="st0" d="M63.49,82.7C53.24,82.7 44.89,74.35 44.89,64.1C44.89,53.85 53.24,45.51 63.49,45.51C68.44,45.51 72.93,47.47 76.26,50.64L81.17,45.71C76.59,41.3 70.36,38.57 63.49,38.57C49.39,38.57 37.96,50 37.96,64.1C37.96,78.2 49.39,89.63 63.49,89.63C70.38,89.63 76.62,86.89 81.21,82.46L76.3,77.53C72.96,80.72 68.46,82.7 63.49,82.7"/><path class="st0" d="M62.91,64.1L62.87,64.07L62.84,64.1Z"/><path class="st0" d="M62.87,64.07L62.91,64.03L62.84,64.03Z"/><path class="st0" d="M120.4,81.44L108.65,46.63L96.89,81.44ZM105.34,38.43L111.88,38.43L126.67,81.44L130.35,81.44L130.35,90.08L124.01,90.08L124.01,87.5L93.28,87.5L93.28,90.08L86.94,90.08L86.94,81.44L90.55,81.44Z"/><path class="st1" d="M19.77,26.5C30.74,13.75 46.68,6.44 63.49,6.44C77.8,6.44 91.48,11.74 102,21.18L63.49,21.18L57.07,27.62L116.67,27.62L112.09,22.3C99.89,8.12 82.18,0 63.49,0C44.8,0 27.09,8.12 14.88,22.3L10.3,27.58L18.82,27.58Z"/><path class="st2" d="M107.21,101.7C96.23,114.45 80.3,121.77 63.49,121.77C49.18,121.77 35.5,116.47 24.98,107.02L63.49,107.02L69.91,100.58L10.3,100.58L14.88,105.9C27.09,120.08 44.8,128.21 63.49,128.21C82.18,128.21 99.89,120.08 112.09,105.9L116.67,100.62L108.16,100.62Z"/></svg>
